src/hbcore/resources/themes/icons/hbdefault/scalable/qtg_mono_store.svg

<?xml version="1.0" encoding="UTF-8" standalone="no"?>
<!DOCTYPE svg PUBLIC "-//W3C//DTD SVG 1.1 Tiny//EN" "http://www.w3.org/Graphics/SVG/1.1/DTD/svg11-tiny.dtd">
<svg xmlns="http://www.w3.org/2000/svg" xmlns:xlink="http://www.w3.org/1999/xlink" baseProfile="tiny" height="30" viewBox="0 0 30 30" width="30">
<rect fill="none" height="30" width="30"/>
<path d="M29,10v-3h-23v-3c0-0.553-0.447-1-1-1h-3c-0.553,0-1,0.447-1,1v1c0,0.553,0.447,1,1,1h1v16c0,0.553,0.448,1,1,1h22c0.553,0,1-0.447,1-1v-1c0-0.553-0.447-1-1-1h-20v-2h21v-2h-0.394l0.986-6h1.4zm-15,0h2v6h-2v-6zm-2,6h-2v-6h2v6zm6-6h2v6h-2v-6zm-12,0h2v6h-2v-6zm17.57,6h-1.57v-6h2.553l-0.98,6z"/>
<circle cx="8.5" cy="25.5" r="2.5"/>
<circle cx="22.5" cy="25.5" r="2.5"/>
</svg>

<?xml version="1.0" encoding="UTF-8"?>
<!DOCTYPE svg PUBLIC "-//W3C//DTD SVG 1.1 Tiny//EN" "http://www.w3.org/Graphics/SVG/1.1/DTD/svg11-tiny.dtd">
<svg baseProfile="tiny" height="30" viewBox="0 0 30 30" width="30" xmlns="http://www.w3.org/2000/svg" xmlns:xlink="http://www.w3.org/1999/xlink">
<rect fill="none" height="30" width="30"/>
<path d="M29,10V7H6V5V4c0-0.553-0.447-1-1-1H4H2C1.447,3,1,3.447,1,4v1c0,0.553,0.447,1,1,1h1v16c0,0.553,0.448,1,1,1h0h1h3.5h14H26 c0.553,0,1-0.447,1-1v-1c0-0.553-0.447-1-1-1H6v-2h17.237h3.04H27v-2h-0.394l0.986-6H29z M14,10h2v6h-2V10z M12,16h-2v-6h2V16z M18,10h2v6h-2V10z M6,10h2v6H6V10z M23.566,16H22v-6h2.553L23.566,16z"/>
<circle cx="8.5" cy="25.5" r="2.5"/>
<circle cx="22.5" cy="25.5" r="2.5"/>
</svg>
